X:1
T: The Birmingham Hornpipe
C:
R:Reel
Q:232
K:D
M:4/4
L:1/8
|:AG|F2F2 FA dF|GF ED CE AG|FA df gf ed|((3efe) ((3cdB) ((3ABA) ((3FGE) |
F2F2 FA dF|GF ED CE AG|FA dA BG EC|D2D2 D2:|
|:f2|ef gf ed cA|de fg a2a2|((3gag) e2 ((3faf) d2 |((3efe) ((3cdB) ((3ABG) ((3FGE) |
F2F2 FA dF|GF ED CE AG|FA dA Bg ec|d2d2 d2:|
